X:1
T: Trip to the Lakes
C:
R:Jig
Q:180
K:G
M:6/8
L:1/16
|:g2f2g2 d2B2G2|A2B2c2 B2A2G2|g2f2g2 A2B2c2|B2G2G2 G6:|
|:g2f2g2 d2B2d2|g2f2g2 e2c2e2|1g2f2g2 d2B2G2|A2B2c2 B2A2G2:|2f2f2g2 A2B2c2|B2G2G2 G6|
|:B,2G2G2 C2G2G2|E2G2G2 D2G2G2|G2e2d2 d2c2B2|c2d2c2 B2A2G2|
B,2G2G2 C2G2G2|E2G2G2 D2G2G2|G2e2c2 B2c2A2|B2G2G2 G6:|
